X:151
T:Xmas simple chords 1
M:3/4
L:1/8
K:C
G2 [c4C,4E,4G,4] | c2 c2 [B2G,2B,2D2] | c2 G2>E2 | [F2F,2A,2C2] F2 A2 | F2 [G2G,2B,2D2] AB |
c2 G2 [c4C,4E,4G,4] | c2 c2 | [B2G,2B,2D2] c2 G3 |E [F2F,2A,2C2] F2 |
A2 F2 [G2G,2B,2D2] | AB c4 | [e2C,2E,2G,2] e2 d2 | d2 [A2A,2C2E2] A2 |
G2>E2 [F2F,2A,2C2] | F2 A2 F2 | [G2G,2B,2D2] AB c2 |


